X:62
T:Kitchen Girl
M:4/4
L:1/8
K:Amix
"A"a4 "G"g4 | "A"efed c2 cd | e2 f2 g2 a2 | "E"b2 e2 e4 | 
"A"a4 "G"g4 | "A"efed c2 cd | e2 A2 Bc d2 | c2 A2 A4 :|
[K:Ador]|: "Am"AB=cA "G"BAG2 | "Am"ABAG E2 A2 | A2 B2 c2 d2 | "E"[ec]4 [eB]4 | 
"Am"ABcA "G"BAG2 | "Am"ABAG E2 A2 | "Am"ABcA "G"BAG2 | "Am"A4 A4 :|]

%%newpage

